flaticon/constructions/anvil.svg

<svg xmlns="http://www.w3.org/2000/svg" width="32" height="32" viewBox="0 0 24 24">
    <path d="M 23.707031 6.515625 C 23.898438 5.910156 24 5.265625 24 4.601562 C 24 4.359375 23.839844 4.199219 23.601562 4.199219 L 7.199219 4.199219 C 6.960938 4.199219 6.800781 4.359375 6.800781 4.601562 L 6.800781 5.398438 L 0.398438 5.398438 C 0.160156 5.398438 0 5.558594 0 5.800781 C 0 8.679688 2.320312 11 5.199219 11 L 7.847656 11 C 8.261719 11.40625 8.582031 11.851562 8.800781 12.359375 C 8.832031 12.421875 8.867188 12.46875 8.910156 12.507812 C 9.128906 13.046875 9.238281 13.621094 9.238281 14.199219 C 9.238281 15.421875 8.730469 16.566406 7.886719 17.398438 L 6.398438 17.398438 C 5.71875 17.398438 5.199219 17.921875 5.199219 18.601562 C 5.199219 19.28125 5.71875 19.800781 6.398438 19.800781 L 17.601562 19.800781 C 18.28125 19.800781 18.800781 19.28125 18.800781 18.601562 C 18.800781 17.921875 18.28125 17.398438 17.601562 17.398438 L 16.148438 17.398438 C 15.273438 16.5625 14.800781 15.382812 14.800781 14.199219 C 14.800781 13.019531 15.273438 11.835938 16.113281 11 L 17.601562 11 C 20.171875 11 22.40625 9.460938 23.417969 7.257812 C 23.441406 7.226562 23.460938 7.195312 23.480469 7.160156 C 23.5625 6.949219 23.640625 6.734375 23.707031 6.515625 Z M 7.601562 5 L 23.199219 5 C 23.160156 5.558594 23.039062 6.078125 22.839844 6.601562 L 7.601562 6.601562 Z M 8.921875 11 L 15.078125 11 C 14.894531 11.253906 14.730469 11.519531 14.585938 11.800781 L 9.441406 11.800781 C 9.28125 11.519531 9.121094 11.238281 8.921875 11 Z M 0.839844 6.199219 L 6.800781 6.199219 L 6.800781 10.199219 L 5.238281 10.199219 C 2.921875 10.199219 1.039062 8.441406 0.839844 6.199219 Z M 18 18.601562 C 18 18.839844 17.839844 19 17.601562 19 L 6.398438 19 C 6.160156 19 6 18.839844 6 18.601562 C 6 18.359375 6.160156 18.199219 6.398438 18.199219 L 17.601562 18.199219 C 17.839844 18.199219 18 18.359375 18 18.601562 Z M 15.078125 17.398438 L 8.921875 17.398438 C 9.640625 16.480469 10 15.359375 10 14.199219 C 10 13.652344 9.917969 13.113281 9.757812 12.601562 L 14.257812 12.601562 C 14.089844 13.113281 14 13.652344 14 14.199219 C 14 15.359375 14.398438 16.480469 15.078125 17.398438 Z M 17.601562 10.199219 L 7.601562 10.199219 L 7.601562 7.398438 L 22.46875 7.398438 C 21.496094 9.078125 19.675781 10.199219 17.601562 10.199219 Z M 17.601562 10.199219"/>
</svg>

<svg xmlns="http://www.w3.org/2000/svg" width="32" height="32" viewBox="0 0 24 24">
    <path d="M23.707 6.516c.191-.606.293-1.25.293-1.914 0-.243-.16-.403-.398-.403H7.199c-.238 0-.398.16-.398.403v.796H.398c-.238 0-.398.16-.398.403A5.19 5.19 0 0 0 5.2 11h2.648c.414.406.734.852.953 1.36.031.062.066.109.11.148.218.539.327 1.113.327 1.691a4.5 4.5 0 0 1-1.351 3.2H6.398c-.68 0-1.199.523-1.199 1.203S5.72 19.8 6.4 19.8h11.203c.68 0 1.199-.52 1.199-1.2 0-.68-.52-1.203-1.2-1.203h-1.453c-.875-.835-1.347-2.015-1.347-3.199 0-1.18.472-2.363 1.312-3.199h1.489c2.57 0 4.804-1.54 5.816-3.742a.831.831 0 0 0 .062-.098c.082-.21.16-.426.227-.644zM7.602 5h15.597a5.508 5.508 0 0 1-.36 1.602H7.603zm1.32 6h6.156c-.183.254-.348.52-.492.8H9.44c-.16-.28-.32-.562-.52-.8zM.84 6.2H6.8v4H5.239a4.4 4.4 0 0 1-4.398-4zM18 18.601c0 .238-.16.398-.398.398H6.398C6.16 19 6 18.84 6 18.602c0-.243.16-.403.398-.403h11.204c.238 0 .398.16.398.403zm-2.922-1.204H8.922C9.64 16.48 10 15.36 10 14.2a5.35 5.35 0 0 0-.242-1.597h4.5A5.125 5.125 0 0 0 14 14.199c0 1.16.398 2.281 1.078 3.2zm2.524-7.199h-10V7.4h14.867a5.617 5.617 0 0 1-4.867 2.8zm0 0"/>
</svg>
